fonts/kmap-icons/SVG_edits/community.svg

<?xml version="1.0" encoding="utf-8"?>
<!-- Generated by IcoMoon.io -->
<!DOCTYPE svg PUBLIC "-//W3C//DTD SVG 1.1//EN" "http://www.w3.org/Graphics/SVG/1.1/DTD/svg11.dtd">
<svg version="1.1" xmlns="http://www.w3.org/2000/svg" xmlns:xlink="http://www.w3.org/1999/xlink" width="32" height="32" viewBox="0 0 32 32">
<g>
</g>
	<path d="M21 4c-2.065 0-3.838 1.253-4.6 3.040 0.704 0.057 1.361 0.256 1.953 0.574 0.502-0.955 1.493-1.614 2.647-1.614 1.656 0 3 1.343 3 3 0 1.657-1.344 3-3 3 0 0.696-0.144 1.357-0.4 1.96 0.134 0.011 0.263 0.040 0.4 0.040 2.762 0 5-2.238 5-5s-2.238-5-5-5z" fill="#000000" />
	<path d="M8 9c0-1.657 1.343-3 3-3 1.154 0 2.144 0.659 2.646 1.614 0.592-0.318 1.25-0.517 1.954-0.574-0.763-1.787-2.535-3.040-4.6-3.040-2.761 0-5 2.238-5 5s2.239 5 5 5c0.137 0 0.266-0.029 0.4-0.040-0.256-0.603-0.4-1.264-0.4-1.96-1.657 0-3-1.343-3-3z" fill="#000000" />
	<path d="M18.354 7.614c-0.592-0.318-1.25-0.517-1.954-0.574-0.134-0.011-0.263-0.040-0.4-0.040s-0.266 0.029-0.4 0.040c-0.704 0.057-1.362 0.256-1.954 0.574-1.568 0.844-2.646 2.481-2.646 4.386 0 0.696 0.144 1.357 0.4 1.96 0.763 1.787 2.535 3.040 4.6 3.040s3.838-1.253 4.6-3.040c0.256-0.603 0.4-1.264 0.4-1.96 0-1.905-1.078-3.542-2.646-4.386zM18.646 13.386c-0.501 0.955-1.492 1.614-2.646 1.614s-2.144-0.659-2.646-1.614c-0.219-0.416-0.354-0.883-0.354-1.386 0-0.326 0.065-0.633 0.161-0.927 0.142-0.433 0.37-0.825 0.678-1.146 0.546-0.569 1.31-0.927 2.161-0.927s1.615 0.358 2.161 0.927c0.308 0.321 0.536 0.713 0.678 1.146 0.097 0.294 0.161 0.601 0.161 0.927 0 0.503-0.135 0.97-0.354 1.386z" fill="#000000" />
	<path d="M28 20.45c0-4.114-3.134-7.45-7-7.45-2.311 0-3.031 2.56-5.628 3.034 0.207-0.019 0.416-0.034 0.628-0.034 0.601 0 1.18 0.089 1.736 0.24 0.877-0.762 2.010-1.24 3.264-1.24 2.762 0 5 2.238 5 5 0 1.096-1.387 1.784-3.125 2.065 0.079 0.45 0.125 0.912 0.125 1.385 0 0.146-0.014 0.288-0.040 0.425 2.737-0.37 5.040-1.517 5.040-3.425z" fill="#000000" />
	<path d="M9.122 22.066c-1.738-0.279-3.122-0.967-3.122-2.066 0-2.762 2.239-5 5-5 1.255 0 2.388 0.479 3.266 1.242 0.359-0.098 0.727-0.172 1.105-0.208 0.208-0.019 0.417-0.034 0.629-0.034 0.216 0 0.426 0.024 0.637 0.045-2.993-0.267-3.321-3.045-5.637-3.045-3.866 0-7 3.335-7 7.45 0 1.938 2.304 3.079 5.042 3.436-0.027-0.141-0.042-0.286-0.042-0.436 0-0.473 0.043-0.935 0.122-1.384z" fill="#000000" />
	<path d="M22.875 22.065c-0.504-2.847-2.526-5.114-5.139-5.825-0.356-0.097-0.725-0.156-1.1-0.195-0.21-0.021-0.42-0.045-0.636-0.045-0.212 0-0.421 0.014-0.628 0.034-0.379 0.036-0.747 0.11-1.105 0.208-2.614 0.71-4.641 2.978-5.144 5.824-0.080 0.449-0.123 0.911-0.123 1.384 0 0.149 0.015 0.295 0.042 0.436 0.798 4.196 13.128 4.132 13.918-0.011 0.026-0.137 0.040-0.279 0.040-0.425 0-0.473-0.046-0.935-0.125-1.385zM11 23c0-2.762 2.239-5 5-5 2.762 0 5 2.238 5 5 0 2.943-10 2.954-10 0z" fill="#000000" />
</svg>

<?xml version="1.0" encoding="utf-8"?>
<!-- Generator: Adobe Illustrator 14.0.0, SVG Export Plug-In . SVG Version: 6.00 Build 43363)  -->
<!DOCTYPE svg PUBLIC "-//W3C//DTD SVG 1.1//EN" "http://www.w3.org/Graphics/SVG/1.1/DTD/svg11.dtd">
<svg version="1.1" id="Layer_1" xmlns="http://www.w3.org/2000/svg" xmlns:xlink="http://www.w3.org/1999/xlink" x="0px" y="0px"
	 width="32px" height="32px" viewBox="0 0 32 32" enable-background="new 0 0 32 32" xml:space="preserve">
<g>
	<path fill="none" d="M18.161,9.927c0.142,0.433,0.37,0.825,0.678,1.146C18.697,10.64,18.469,10.248,18.161,9.927z"/>
	<path fill="none" d="M16,9c-1.657,0-3,1.343-3,3c0,1.657,1.343,3,3,3c1.154,0,2.145-0.659,2.646-1.614
		C17.078,12.542,16,10.905,16,9z"/>
	<path fill="none" d="M21,12c1.656,0,3-1.343,3-3c0-1.657-1.344-3-3-3c-1.154,0-2.145,0.659-2.646,1.614
		C19.922,8.458,21,10.095,21,12z"/>
	<path d="M21,4c-2.065,0-3.838,1.253-4.6,3.04c0.704,0.057,1.361,0.256,1.953,0.574C18.855,6.659,19.846,6,21,6c1.656,0,3,1.343,3,3
		c0,1.657-1.344,3-3,3c0,0.696-0.144,1.357-0.4,1.96C20.734,13.971,20.863,14,21,14c2.762,0,5-2.238,5-5S23.762,4,21,4z"/>
	<g>
		<path fill="none" d="M11,6C9.343,6,8,7.343,8,9c0,1.657,1.343,3,3,3c0-1.905,1.078-3.542,2.646-4.386C13.144,6.659,12.154,6,11,6z
			"/>
		<path fill="none" d="M13.161,11.073c0.308-0.321,0.536-0.713,0.678-1.146C13.531,10.248,13.303,10.64,13.161,11.073z"/>
		<path fill="none" d="M18.161,9.927C17.615,9.358,16.851,9,16,9c0,1.905-1.078,3.542-2.646,4.386C13.856,14.341,14.846,15,16,15
			c1.154,0,2.145-0.659,2.646-1.614C18.865,12.97,19,12.503,19,12c0-0.326-0.064-0.633-0.161-0.927
			C18.697,10.64,18.469,10.248,18.161,9.927z"/>
		<path fill="none" d="M13.161,11.073C13.065,11.367,13,11.674,13,12c0,0.503,0.135,0.97,0.354,1.386C14.922,12.542,16,10.905,16,9
			c-0.851,0-1.615,0.358-2.161,0.927C13.697,10.36,13.469,10.752,13.161,11.073z"/>
		<path d="M8,9c0-1.657,1.343-3,3-3c1.154,0,2.144,0.659,2.646,1.614c0.592-0.318,1.25-0.517,1.954-0.574
			C14.837,5.253,13.065,4,11,4C8.239,4,6,6.238,6,9s2.239,5,5,5c0.137,0,0.266-0.029,0.4-0.04C11.144,13.357,11,12.696,11,12
			C9.343,12,8,10.657,8,9z"/>
		<path d="M18.354,7.614C17.762,7.296,17.104,7.097,16.4,7.04C16.266,7.029,16.137,7,16,7s-0.266,0.029-0.4,0.04
			c-0.704,0.057-1.362,0.256-1.954,0.574C12.078,8.458,11,10.095,11,12c0,0.696,0.144,1.357,0.4,1.96C12.163,15.747,13.935,17,16,17
			s3.838-1.253,4.6-3.04C20.856,13.357,21,12.696,21,12C21,10.095,19.922,8.458,18.354,7.614z M18.646,13.386
			C18.145,14.341,17.154,15,16,15c-1.154,0-2.144-0.659-2.646-1.614C13.135,12.97,13,12.503,13,12c0-0.326,0.065-0.633,0.161-0.927
			c0.142-0.433,0.37-0.825,0.678-1.146C14.385,9.358,15.149,9,16,9s1.615,0.358,2.161,0.927c0.308,0.321,0.536,0.713,0.678,1.146
			C18.936,11.367,19,11.674,19,12C19,12.503,18.865,12.97,18.646,13.386z"/>
	</g>
</g>
<g>
	<path fill="none" d="M22.875,22.065C24.613,21.784,26,21.096,26,20c0-2.762-2.238-5-5-5c-1.254,0-2.387,0.478-3.264,1.241
		C20.349,16.952,22.371,19.219,22.875,22.065z"/>
	<path d="M28,20.45c0-4.114-3.134-7.45-7-7.45c-2.311,0-3.031,2.56-5.628,3.034C15.579,16.015,15.788,16,16,16
		c0.601,0,1.18,0.089,1.736,0.24C18.613,15.478,19.746,15,21,15c2.762,0,5,2.238,5,5c0,1.096-1.387,1.784-3.125,2.065
		C22.954,22.515,23,22.977,23,23.45c0,0.146-0.014,0.288-0.04,0.425C25.697,23.505,28,22.358,28,20.45z"/>
	<g>
		<path fill="none" d="M6,20c0,1.099,1.384,1.787,3.122,2.066c0.503-2.847,2.53-5.114,5.144-5.824C13.388,15.479,12.255,15,11,15
			C8.239,15,6,17.238,6,20z"/>
		<path d="M9.122,22.066C7.384,21.787,6,21.099,6,20c0-2.762,2.239-5,5-5c1.255,0,2.388,0.479,3.266,1.242
			c0.359-0.098,0.727-0.172,1.105-0.208C15.579,16.015,15.788,16,16,16c0.216,0,0.426,0.024,0.637,0.045
			C13.644,15.778,13.316,13,11,13c-3.866,0-7,3.335-7,7.45c0,1.938,2.304,3.079,5.042,3.436C9.015,23.745,9,23.6,9,23.45
			C9,22.977,9.043,22.515,9.122,22.066z"/>
	</g>
</g>
<path d="M22.875,22.065c-0.504-2.847-2.526-5.114-5.139-5.825c-0.356-0.097-0.725-0.156-1.1-0.195C16.426,16.024,16.216,16,16,16
	c-0.212,0-0.421,0.014-0.628,0.034c-0.379,0.036-0.747,0.11-1.105,0.208c-2.614,0.71-4.641,2.978-5.144,5.824
	C9.043,22.515,9,22.977,9,23.45c0,0.149,0.015,0.295,0.042,0.436c0.798,4.196,13.128,4.132,13.918-0.011
	C22.986,23.738,23,23.596,23,23.45C23,22.977,22.954,22.515,22.875,22.065z M11,23c0-2.762,2.239-5,5-5c2.762,0,5,2.238,5,5
	C21,25.943,11,25.954,11,23z"/>
</svg>
